.local/share/icons/Gruvbox-Plus-Dark/mimetypes/scalable/application-mathematica.svg

<svg width="256" height="256" viewBox="0 0 256 256" fill="none" xmlns="http://www.w3.org/2000/svg">
<g clip-path="url(#clip0)">
<g opacity="0.4" filter="url(#filter0_f)">
<path d="M55.0839 15.5636H155.608L216.009 75.7129L216.011 224.609C216.011 233.52 208.749 240.737 199.838 240.737H55.0838C46.1734 240.737 39 233.564 39 224.654V31.6474C39 22.737 46.1734 15.5636 55.0838 15.5636H55.0839Z" fill="#282828"/>
</g>
<path d="M55.0839 15H155.608L216.009 75.1493L216.011 224.045C216.011 232.956 208.749 240.174 199.838 240.174H55.0838C46.1734 240.174 39 233 39 224.09V31.0838C39 22.1734 46.1734 15 55.0838 15H55.0839Z" fill="#ebdbb2"/>
<path fill-rule="evenodd" clip-rule="evenodd" d="M155.609 22.9787H55.0839C50.58 22.9787 46.9787 26.5799 46.9787 31.0838V224.09C46.9787 228.594 50.5799 232.195 55.0838 232.195H199.838C204.371 232.195 208.032 228.521 208.032 224.046V75.1493L155.609 22.9787ZM155.608 15H55.0839C46.1735 15 39 22.1734 39 31.0838V224.09C39 233 46.1734 240.174 55.0838 240.174H199.838C208.749 240.174 216.011 232.956 216.011 224.045L216.009 75.1493L155.608 15Z" fill="url(#paint0_linear)"/>
<path d="M115.582 166.41L92.7841 176.954L95.3172 151.849L71 146.326L87.2115 127.749L71 109.172L95.3172 103.649L92.2775 79.046L115.582 89.0879L128.247 68L140.405 89.0879L164.216 79.046L161.683 103.649L186 109.172L169.282 127.749L186 146.326L161.683 151.849L164.216 176.452L140.912 166.41L128.247 188L115.582 166.41Z" fill="url(#paint1_linear)"/>
<path fill-rule="evenodd" clip-rule="evenodd" d="M130.319 165.719C129.613 167.501 128.925 169.403 128.247 171.431C127.486 169.434 126.723 167.56 125.947 165.804C118.516 148.989 109.943 142.9 92.1993 141.574C90.3066 141.433 88.3094 141.346 86.1982 141.305C87.8432 139.994 89.3698 138.714 90.7821 137.456C103.955 125.716 107.18 115.786 103.697 98.2718C103.338 96.4661 102.908 94.5798 102.41 92.6025C104.102 93.7588 105.734 94.817 107.317 95.7757C121.964 104.647 132.467 104.991 149.102 95.5887C150.703 94.6839 152.36 93.6889 154.084 92.6025C153.534 94.5499 153.054 96.4098 152.648 98.1921C148.716 115.445 151.696 125.437 165.413 137.33C166.911 138.628 168.537 139.95 170.295 141.305C168.069 141.282 165.966 141.312 163.977 141.404C145.973 142.236 137.283 148.145 130.319 165.719ZM140.808 143.905C135.374 147.726 131.387 153.281 128.036 160.72C124.551 153.694 120.557 148.368 115.274 144.596C109.996 140.828 103.759 138.843 96.1958 137.926C101.579 132.674 105.304 127.407 107.311 121.359C109.348 115.218 109.494 108.626 108.298 100.987C114.701 104.478 120.759 106.477 127.186 106.55C133.867 106.625 140.53 104.614 147.977 100.774C146.585 108.332 146.577 114.923 148.589 121.111C150.547 127.131 154.296 132.408 159.794 137.671C152.291 138.394 146.052 140.217 140.808 143.905ZM110.782 135.837C109.454 135.446 108.022 135.098 106.463 134.778C107.463 133.549 108.357 132.382 109.153 131.255C113.285 125.399 114.768 120.597 114.749 113.618C114.745 112.23 114.682 110.757 114.568 109.172C116.029 109.813 117.405 110.368 118.728 110.833C125.222 113.114 130.438 113.221 138.092 110.743C139.455 110.302 140.894 109.779 142.432 109.172C142.158 110.789 141.959 112.289 141.843 113.699C141.263 120.739 142.746 125.523 147.197 131.354C148.035 132.451 148.977 133.585 150.031 134.778C148.478 135.157 147.049 135.548 145.724 135.967C138.826 138.146 134.745 141.061 130.677 146.681C129.874 147.791 129.071 149.007 128.247 150.343C127.396 149.021 126.575 147.813 125.764 146.706C121.443 140.807 117.418 137.789 110.782 135.837ZM121.442 136.483C118.982 134.704 116.312 133.408 113.266 132.401C115.112 129.623 116.483 126.911 117.395 123.995C118.284 121.156 118.697 118.255 118.784 115.089C121.745 116.018 124.634 116.555 127.694 116.588C130.908 116.622 134.148 116.098 137.699 115.069C137.572 118.232 137.861 121.154 138.717 124.018C139.617 127.032 141.093 129.802 143.096 132.603C139.944 133.701 137.207 135.031 134.728 136.805C132.26 138.571 130.171 140.688 128.208 143.235C126.12 140.533 123.956 138.301 121.442 136.483Z" fill="#ebdbb2"/>
<path opacity="0.25" d="M155.608 17V61.2306C155.608 70.141 162.867 77.1605 171.777 77.1605L216.009 77.1493V75.1493L155.608 17Z" fill="#282828"/>
<path d="M155.608 15V59.2306C155.608 68.141 162.867 75.1605 171.777 75.1605L216.009 75.1493L155.608 15Z" fill="url(#paint2_linear)"/>
</g>
<defs>
<filter id="filter0_f" x="23.8778" y="0.441412" width="207.255" height="255.418" filterUnits="userSpaceOnUse" color-interpolation-filters="sRGB">
<feFlood flood-opacity="0" result="BackgroundImageFix"/>
<feBlend mode="normal" in="SourceGraphic" in2="BackgroundImageFix" result="shape"/>
<feGaussianBlur stdDeviation="7.5611" result="effect1_foregroundBlur"/>
</filter>
<linearGradient id="paint0_linear" x1="39" y1="15" x2="39" y2="240.174" gradientUnits="userSpaceOnUse">
<stop offset="1e-07" stop-color="#fb4934"/>
<stop offset="1" stop-color="#cc241d"/>
</linearGradient>
<linearGradient id="paint1_linear" x1="71" y1="68" x2="71" y2="188" gradientUnits="userSpaceOnUse">
<stop offset="1e-07" stop-color="#fb4934"/>
<stop offset="1" stop-color="#cc241d"/>
</linearGradient>
<linearGradient id="paint2_linear" x1="155.608" y1="15" x2="155.608" y2="75.1605" gradientUnits="userSpaceOnUse">
<stop offset="1e-07" stop-color="#fb4934"/>
<stop offset="1" stop-color="#cc241d"/>
</linearGradient>
<clipPath id="clip0">
<rect width="256" height="256" fill="#ebdbb2"/>
</clipPath>
</defs>
</svg>

<svg width="256" height="256" fill="none" version="1.1" viewBox="0 0 256 256" xmlns="http://www.w3.org/2000/svg">
  <path d="m55.08 15h100.5l60.4 60.15 2e-3 148.9c0 8.911-7.262 16.13-16.17 16.13h-144.8c-8.91 0-16.08-7.174-16.08-16.08v-193c0-8.91 7.173-16.08 16.08-16.08h1e-4z" fill="#ebdbb2"/>
  <path d="m155.6 22.98h-100.5c-4.504 0-8.105 3.601-8.105 8.105v193c0 4.504 3.601 8.105 8.105 8.105h144.8c4.533 0 8.194-3.674 8.194-8.149v-148.9l-52.42-52.17zm-1e-3 -7.979h-100.5c-8.91 0-16.08 7.173-16.08 16.08v193c0 8.91 7.173 16.08 16.08 16.08h144.8c8.911 0 16.17-7.218 16.17-16.13l-2e-3 -148.9-60.4-60.15z" clip-rule="evenodd" fill="url(#paint0_linear)" fill-rule="evenodd"/>
  <path d="m115.6 166.4-22.8 10.54 2.533-25.1-24.32-5.523 16.21-18.58-16.21-18.58 24.32-5.523-3.04-24.6 23.3 10.04 12.66-21.09 12.16 21.09 23.81-10.04-2.533 24.6 24.32 5.523-16.72 18.58 16.72 18.58-24.32 5.523 2.533 24.6-23.3-10.04-12.66 21.59-12.66-21.59z" fill="url(#paint1_linear)"/>
  <path d="m130.3 165.7c-0.706 1.782-1.394 3.684-2.072 5.712-0.761-1.997-1.524-3.871-2.3-5.627-7.431-16.82-16-22.9-33.75-24.23-1.893-0.141-3.89-0.228-6.001-0.269 1.645-1.311 3.172-2.591 4.584-3.849 13.17-11.74 16.4-21.67 12.91-39.18-0.359-1.806-0.789-3.692-1.287-5.669 1.692 1.156 3.324 2.214 4.907 3.173 14.65 8.871 25.15 9.215 41.78-0.187 1.601-0.9048 3.258-1.9 4.982-2.986-0.55 1.947-1.03 3.807-1.436 5.59-3.932 17.25-0.952 27.24 12.76 39.14 1.498 1.298 3.124 2.62 4.882 3.975-2.226-0.023-4.329 7e-3 -6.318 0.099-18 0.832-26.69 6.741-33.66 24.32zm10.49-21.81c-5.434 3.821-9.421 9.376-12.77 16.82-3.485-7.026-7.479-12.35-12.76-16.12-5.278-3.768-11.52-5.753-19.08-6.67 5.383-5.252 9.108-10.52 11.12-16.57 2.037-6.141 2.183-12.73 0.987-20.37 6.403 3.491 12.46 5.49 18.89 5.563 6.681 0.075 13.34-1.936 20.79-5.776-1.392 7.558-1.4 14.15 0.612 20.34 1.958 6.02 5.707 11.3 11.2 16.56-7.503 0.723-13.74 2.546-18.99 6.234zm-30.03-8.068c-1.328-0.391-2.76-0.739-4.319-1.059 1-1.229 1.894-2.396 2.69-3.523 4.132-5.856 5.615-10.66 5.596-17.64-4e-3 -1.388-0.067-2.861-0.181-4.446 1.461 0.641 2.837 1.196 4.16 1.661 6.494 2.281 11.71 2.388 19.36-0.09 1.363-0.441 2.802-0.964 4.34-1.571-0.274 1.617-0.473 3.117-0.589 4.527-0.58 7.04 0.903 11.82 5.354 17.66 0.838 1.097 1.78 2.231 2.834 3.424-1.553 0.379-2.982 0.77-4.307 1.189-6.898 2.179-10.98 5.094-15.05 10.71-0.803 1.11-1.606 2.326-2.43 3.662-0.851-1.322-1.672-2.53-2.483-3.637-4.321-5.899-8.346-8.917-14.98-10.87zm10.66 0.646c-2.46-1.779-5.13-3.075-8.176-4.082 1.846-2.778 3.217-5.49 4.129-8.406 0.889-2.839 1.302-5.74 1.389-8.906 2.961 0.929 5.85 1.466 8.91 1.499 3.214 0.034 6.454-0.49 10-1.519-0.127 3.163 0.162 6.085 1.018 8.949 0.9 3.014 2.376 5.784 4.379 8.585-3.152 1.098-5.889 2.428-8.368 4.202-2.468 1.766-4.557 3.883-6.52 6.43-2.088-2.702-4.252-4.934-6.766-6.752z" clip-rule="evenodd" fill="#ebdbb2" fill-rule="evenodd"/>
  <path d="m155.6 17v44.23c0 8.91 7.259 15.93 16.17 15.93l44.23-0.0112v-2l-60.4-58.15z" fill="#282828" opacity=".25"/>
  <path d="m155.6 15v44.23c0 8.91 7.259 15.93 16.17 15.93l44.23-0.0112-60.4-60.15z" fill="url(#paint2_linear)"/>
  <defs>
    <linearGradient id="paint0_linear" x1="39" x2="39" y1="15" y2="240.2" gradientUnits="userSpaceOnUse">
      <stop stop-color="#fb4934" offset="1e-7"/>
      <stop stop-color="#cc241d" offset="1"/>
    </linearGradient>
    <linearGradient id="paint1_linear" x1="71" x2="71" y1="68" y2="188" gradientUnits="userSpaceOnUse">
      <stop stop-color="#fb4934" offset="1e-7"/>
      <stop stop-color="#cc241d" offset="1"/>
    </linearGradient>
    <linearGradient id="paint2_linear" x1="155.6" x2="155.6" y1="15" y2="75.16" gradientUnits="userSpaceOnUse">
      <stop stop-color="#fb4934" offset="1e-7"/>
      <stop stop-color="#cc241d" offset="1"/>
    </linearGradient>
  </defs>
</svg>
